images/640401.svg

<?xml version="1.0" encoding="UTF-8"?>
<svg xmlns="http://www.w3.org/2000/svg" xmlns:xlink="http://www.w3.org/1999/xlink" width="300pt" height="300pt" viewBox="0 0 300 300" version="1.1">
<defs>
<g>
<symbol overflow="visible" id="glyph0-0">
<path style="stroke:none;" d="M 0.546875 1.9375 L 0.546875 -7.75 L 6.046875 -7.75 L 6.046875 1.9375 Z M 1.171875 1.328125 L 5.4375 1.328125 L 5.4375 -7.140625 L 1.171875 -7.140625 Z M 1.171875 1.328125 "/>
</symbol>
<symbol overflow="visible" id="glyph0-1">
<path style="stroke:none;" d="M 4.328125 -7.28125 C 3.546875 -7.28125 2.921875 -6.984375 2.453125 -6.390625 C 1.992188 -5.804688 1.765625 -5.007812 1.765625 -4 C 1.765625 -2.988281 1.992188 -2.1875 2.453125 -1.59375 C 2.921875 -1.007812 3.546875 -0.71875 4.328125 -0.71875 C 5.117188 -0.71875 5.742188 -1.007812 6.203125 -1.59375 C 6.660156 -2.1875 6.890625 -2.988281 6.890625 -4 C 6.890625 -5.007812 6.660156 -5.804688 6.203125 -6.390625 C 5.742188 -6.984375 5.117188 -7.28125 4.328125 -7.28125 Z M 4.328125 -8.171875 C 5.453125 -8.171875 6.351562 -7.789062 7.03125 -7.03125 C 7.707031 -6.28125 8.046875 -5.269531 8.046875 -4 C 8.046875 -2.738281 7.707031 -1.726562 7.03125 -0.96875 C 6.351562 -0.21875 5.453125 0.15625 4.328125 0.15625 C 3.203125 0.15625 2.300781 -0.21875 1.625 -0.96875 C 0.957031 -1.71875 0.625 -2.726562 0.625 -4 C 0.625 -5.269531 0.957031 -6.28125 1.625 -7.03125 C 2.300781 -7.789062 3.203125 -8.171875 4.328125 -8.171875 Z M 4.328125 -8.171875 "/>
</symbol>
<symbol overflow="visible" id="glyph0-2">
<path style="stroke:none;" d="M 1.078125 -8.015625 L 2.546875 -8.015625 L 6.09375 -1.3125 L 6.09375 -8.015625 L 7.15625 -8.015625 L 7.15625 0 L 5.6875 0 L 2.125 -6.703125 L 2.125 0 L 1.078125 0 Z M 1.078125 -8.015625 "/>
</symbol>
<symbol overflow="visible" id="glyph0-3">
<path style="stroke:none;" d="M 1.078125 -8.015625 L 2.171875 -8.015625 L 2.171875 -4.734375 L 6.109375 -4.734375 L 6.109375 -8.015625 L 7.1875 -8.015625 L 7.1875 0 L 6.109375 0 L 6.109375 -3.8125 L 2.171875 -3.8125 L 2.171875 0 L 1.078125 0 Z M 1.078125 -8.015625 "/>
</symbol>
</g>
</defs>
<g id="surface34365">
<rect x="0" y="0" width="300" height="300" style="fill:rgb(100%,100%,100%);fill-opacity:1;stroke:none;"/>
<path style="fill:none;stroke-width:1.2;stroke-linecap:butt;stroke-linejoin:miter;stroke:rgb(0%,0%,0%);stroke-opacity:1;stroke-miterlimit:10;" d="M 65.382812 83.277344 L 64.046875 96.820312 "/>
<path style="fill:none;stroke-width:1.2;stroke-linecap:butt;stroke-linejoin:miter;stroke:rgb(100%,0%,0%);stroke-opacity:1;stroke-miterlimit:10;" d="M 64.046875 96.820312 L 62.710938 110.363281 "/>
<path style="fill:none;stroke-width:1.2;stroke-linecap:butt;stroke-linejoin:miter;stroke:rgb(100%,0%,0%);stroke-opacity:1;stroke-miterlimit:10;" d="M 62.710938 110.363281 L 73.773438 118.289062 "/>
<path style="fill:none;stroke-width:1.2;stroke-linecap:butt;stroke-linejoin:miter;stroke:rgb(0%,0%,0%);stroke-opacity:1;stroke-miterlimit:10;" d="M 73.773438 118.289062 L 84.832031 126.21875 "/>
<path style=" stroke:none;fill-rule:nonzero;fill:rgb(100%,100%,100%);fill-opacity:1;" d="M 58.710938 103.863281 L 67.710938 103.863281 L 67.710938 116.863281 L 58.710938 116.863281 Z M 58.710938 103.863281 "/>
<g style="fill:rgb(100%,0%,0%);fill-opacity:1;">
  <use xlink:href="#glyph0-1" x="58.710938" y="113.764648"/>
</g>
<path style="fill:none;stroke-width:1.2;stroke-linecap:butt;stroke-linejoin:miter;stroke:rgb(0%,0%,0%);stroke-opacity:1;stroke-miterlimit:10;" d="M 86.152344 129.132812 L 98.546875 123.519531 "/>
<path style="fill:none;stroke-width:1.2;stroke-linecap:butt;stroke-linejoin:miter;stroke:rgb(100%,0%,0%);stroke-opacity:1;stroke-miterlimit:10;" d="M 98.546875 123.519531 L 110.941406 117.90625 "/>
<path style="fill:none;stroke-width:1.2;stroke-linecap:butt;stroke-linejoin:miter;stroke:rgb(0%,0%,0%);stroke-opacity:1;stroke-miterlimit:10;" d="M 83.511719 123.300781 L 95.90625 117.6875 "/>
<path style="fill:none;stroke-width:1.2;stroke-linecap:butt;stroke-linejoin:miter;stroke:rgb(100%,0%,0%);stroke-opacity:1;stroke-miterlimit:10;" d="M 95.90625 117.6875 L 108.300781 112.074219 "/>
<path style=" stroke:none;fill-rule:nonzero;fill:rgb(0%,0%,0%);fill-opacity:1;" d="M 82.160156 153.300781 L 89.609375 126.6875 L 80.050781 125.746094 Z M 82.160156 153.300781 "/>
<path style=" stroke:none;fill-rule:nonzero;fill:rgb(100%,100%,100%);fill-opacity:1;" d="M 105.621094 108.488281 L 114.621094 108.488281 L 114.621094 121.488281 L 105.621094 121.488281 Z M 105.621094 108.488281 "/>
<g style="fill:rgb(100%,0%,0%);fill-opacity:1;">
  <use xlink:href="#glyph0-1" x="105.621094" y="118.389648"/>
</g>
<path style="fill:none;stroke-width:1.2;stroke-linecap:butt;stroke-linejoin:miter;stroke:rgb(0%,0%,0%);stroke-opacity:1;stroke-miterlimit:10;" d="M 82.160156 153.300781 L 57.371094 164.527344 "/>
<path style="fill:none;stroke-width:1.2;stroke-linecap:butt;stroke-linejoin:miter;stroke:rgb(0%,0%,0%);stroke-opacity:1;stroke-miterlimit:10;" d="M 104.28125 169.15625 L 82.160156 153.300781 "/>
<path style="fill:none;stroke-width:1.2;stroke-linecap:butt;stroke-linejoin:miter;stroke:rgb(0%,0%,0%);stroke-opacity:1;stroke-miterlimit:10;" d="M 57.371094 164.527344 L 54.699219 191.613281 "/>
<path style=" stroke:none;fill-rule:nonzero;fill:rgb(0%,0%,0%);fill-opacity:1;" d="M 57.371094 164.527344 L 38.046875 144.769531 L 32.453125 152.578125 Z M 57.371094 164.527344 "/>
<path style="fill:none;stroke-width:1.2;stroke-linecap:butt;stroke-linejoin:miter;stroke:rgb(0%,0%,0%);stroke-opacity:1;stroke-miterlimit:10;" d="M 54.699219 191.613281 L 76.816406 207.46875 "/>
<path style=" stroke:none;fill-rule:nonzero;fill:rgb(0%,0%,0%);fill-opacity:1;" d="M 101.609375 196.238281 L 74.835938 203.09375 L 78.800781 211.84375 Z M 101.609375 196.238281 "/>
<path style="fill:none;stroke-width:1.2;stroke-linecap:butt;stroke-linejoin:miter;stroke:rgb(0%,0%,0%);stroke-opacity:1;stroke-miterlimit:10;" d="M 101.609375 196.238281 L 104.28125 169.15625 "/>
<path style="fill:none;stroke-width:1.2;stroke-linecap:butt;stroke-linejoin:miter;stroke:rgb(0%,0%,0%);stroke-opacity:1;stroke-miterlimit:10;" d="M 123.726562 212.09375 L 101.609375 196.238281 "/>
<path style="fill:none;stroke-width:1;stroke-linecap:butt;stroke-linejoin:miter;stroke:rgb(0%,0%,0%);stroke-opacity:1;stroke-miterlimit:10;" d="M 104.28125 169.15625 L 104.28125 169.15625 M 107.1875 168.410156 L 106.753906 167.460938 M 110.09375 167.667969 L 109.230469 165.769531 M 113 166.925781 L 111.707031 164.074219 M 115.90625 166.179688 L 114.183594 162.378906 M 118.8125 165.4375 L 116.660156 160.6875 M 121.71875 164.691406 L 119.136719 158.992188 M 124.625 163.949219 L 121.613281 157.300781 M 127.53125 163.203125 L 124.089844 155.605469 M 130.4375 162.460938 L 126.5625 153.910156 M 131.050781 162.300781 L 127.089844 153.554688 "/>
<path style="fill:none;stroke-width:1;stroke-linecap:butt;stroke-linejoin:miter;stroke:rgb(0%,0%,0%);stroke-opacity:1;stroke-miterlimit:10;" d="M 151.1875 173.78125 L 151.1875 173.78125 M 149.09375 171.636719 L 148.484375 172.484375 M 146.996094 169.492188 L 145.78125 171.1875 M 144.898438 167.347656 L 143.074219 169.890625 M 142.800781 165.203125 L 140.371094 168.59375 M 140.703125 163.058594 L 137.664062 167.296875 M 138.605469 160.914062 L 134.960938 166 M 136.507812 158.769531 L 132.253906 164.699219 M 134.410156 156.625 L 129.550781 163.402344 M 132.3125 154.476562 L 126.84375 162.105469 M 131.867188 154.023438 L 126.273438 161.832031 "/>
<path style="fill:none;stroke-width:1.2;stroke-linecap:butt;stroke-linejoin:miter;stroke:rgb(0%,0%,0%);stroke-opacity:1;stroke-miterlimit:10;" d="M 151.1875 173.78125 L 175.980469 162.554688 "/>
<path style="fill:none;stroke-width:1.2;stroke-linecap:butt;stroke-linejoin:miter;stroke:rgb(0%,0%,100%);stroke-opacity:1;stroke-miterlimit:10;" d="M 148.519531 200.867188 L 149.855469 187.324219 "/>
<path style="fill:none;stroke-width:1.2;stroke-linecap:butt;stroke-linejoin:miter;stroke:rgb(0%,0%,0%);stroke-opacity:1;stroke-miterlimit:10;" d="M 149.855469 187.324219 L 151.1875 173.78125 "/>
<path style="fill:none;stroke-width:1.2;stroke-linecap:butt;stroke-linejoin:miter;stroke:rgb(0%,0%,0%);stroke-opacity:1;stroke-miterlimit:10;" d="M 175.980469 162.554688 L 198.097656 178.410156 "/>
<path style="fill:none;stroke-width:1.2;stroke-linecap:butt;stroke-linejoin:miter;stroke:rgb(0%,0%,0%);stroke-opacity:1;stroke-miterlimit:10;" d="M 181.921875 158.933594 L 199.617188 171.621094 "/>
<path style="fill:none;stroke-width:1.2;stroke-linecap:butt;stroke-linejoin:miter;stroke:rgb(0%,0%,100%);stroke-opacity:1;stroke-miterlimit:10;" d="M 184.222656 136.617188 L 180.101562 149.585938 "/>
<path style="fill:none;stroke-width:1.2;stroke-linecap:butt;stroke-linejoin:miter;stroke:rgb(0%,0%,0%);stroke-opacity:1;stroke-miterlimit:10;" d="M 180.101562 149.585938 L 175.980469 162.554688 "/>
<path style="fill:none;stroke-width:1.2;stroke-linecap:butt;stroke-linejoin:miter;stroke:rgb(0%,0%,0%);stroke-opacity:1;stroke-miterlimit:10;" d="M 198.097656 178.410156 L 195.429688 205.492188 "/>
<path style="fill:none;stroke-width:1.2;stroke-linecap:butt;stroke-linejoin:miter;stroke:rgb(0%,0%,0%);stroke-opacity:1;stroke-miterlimit:10;" d="M 198.097656 178.410156 L 220.015625 162.273438 "/>
<path style="fill:none;stroke-width:1.2;stroke-linecap:butt;stroke-linejoin:miter;stroke:rgb(0%,0%,0%);stroke-opacity:1;stroke-miterlimit:10;" d="M 195.429688 205.492188 L 170.636719 216.722656 "/>
<path style="fill:none;stroke-width:1.2;stroke-linecap:butt;stroke-linejoin:miter;stroke:rgb(0%,0%,0%);stroke-opacity:1;stroke-miterlimit:10;" d="M 170.636719 216.722656 L 159.578125 208.792969 "/>
<path style="fill:none;stroke-width:1.2;stroke-linecap:butt;stroke-linejoin:miter;stroke:rgb(0%,0%,100%);stroke-opacity:1;stroke-miterlimit:10;" d="M 159.578125 208.792969 L 148.519531 200.867188 "/>
<path style="fill:none;stroke-width:1.2;stroke-linecap:butt;stroke-linejoin:miter;stroke:rgb(0%,0%,100%);stroke-opacity:1;stroke-miterlimit:10;" d="M 148.519531 200.867188 L 136.121094 206.480469 "/>
<path style="fill:none;stroke-width:1.2;stroke-linecap:butt;stroke-linejoin:miter;stroke:rgb(0%,0%,0%);stroke-opacity:1;stroke-miterlimit:10;" d="M 136.121094 206.480469 L 123.726562 212.09375 "/>
<path style=" stroke:none;fill-rule:nonzero;fill:rgb(100%,100%,100%);fill-opacity:1;" d="M 144.519531 194.367188 L 152.519531 194.367188 L 152.519531 207.367188 L 144.519531 207.367188 Z M 144.519531 194.367188 "/>
<g style="fill:rgb(0%,0%,100%);fill-opacity:1;">
  <use xlink:href="#glyph0-2" x="144.519531" y="204.268555"/>
</g>
<path style="fill:none;stroke-width:1.2;stroke-linecap:butt;stroke-linejoin:miter;stroke:rgb(0%,0%,0%);stroke-opacity:1;stroke-miterlimit:10;" d="M 220.015625 162.273438 L 246.667969 167.761719 "/>
<path style="fill:none;stroke-width:1.2;stroke-linecap:butt;stroke-linejoin:miter;stroke:rgb(0%,0%,0%);stroke-opacity:1;stroke-miterlimit:10;" d="M 223.96875 156.550781 L 245.296875 160.9375 "/>
<path style="fill:none;stroke-width:1.2;stroke-linecap:butt;stroke-linejoin:miter;stroke:rgb(0%,0%,0%);stroke-opacity:1;stroke-miterlimit:10;" d="M 211.4375 136.445312 L 220.015625 162.273438 "/>
<path style="fill:none;stroke-width:1.2;stroke-linecap:butt;stroke-linejoin:miter;stroke:rgb(0%,0%,0%);stroke-opacity:1;stroke-miterlimit:10;" d="M 246.667969 167.761719 L 264.75 147.417969 "/>
<path style="fill:none;stroke-width:1.2;stroke-linecap:butt;stroke-linejoin:miter;stroke:rgb(0%,0%,0%);stroke-opacity:1;stroke-miterlimit:10;" d="M 264.75 147.417969 L 256.175781 121.589844 "/>
<path style="fill:none;stroke-width:1.2;stroke-linecap:butt;stroke-linejoin:miter;stroke:rgb(0%,0%,0%);stroke-opacity:1;stroke-miterlimit:10;" d="M 257.816406 146.855469 L 250.953125 126.191406 "/>
<path style="fill:none;stroke-width:1.2;stroke-linecap:butt;stroke-linejoin:miter;stroke:rgb(0%,0%,0%);stroke-opacity:1;stroke-miterlimit:10;" d="M 256.175781 121.589844 L 229.519531 116.101562 "/>
<path style="fill:none;stroke-width:1.2;stroke-linecap:butt;stroke-linejoin:miter;stroke:rgb(0%,0%,0%);stroke-opacity:1;stroke-miterlimit:10;" d="M 229.519531 116.101562 L 211.4375 136.445312 "/>
<path style="fill:none;stroke-width:1.2;stroke-linecap:butt;stroke-linejoin:miter;stroke:rgb(0%,0%,0%);stroke-opacity:1;stroke-miterlimit:10;" d="M 232.496094 122.390625 L 218.03125 138.664062 "/>
<path style="fill:none;stroke-width:1.2;stroke-linecap:butt;stroke-linejoin:miter;stroke:rgb(0%,0%,0%);stroke-opacity:1;stroke-miterlimit:10;" d="M 211.4375 136.445312 L 197.832031 136.53125 "/>
<path style="fill:none;stroke-width:1.2;stroke-linecap:butt;stroke-linejoin:miter;stroke:rgb(0%,0%,100%);stroke-opacity:1;stroke-miterlimit:10;" d="M 197.832031 136.53125 L 184.222656 136.617188 "/>
<path style=" stroke:none;fill-rule:nonzero;fill:rgb(100%,100%,100%);fill-opacity:1;" d="M 176.222656 130.117188 L 193.222656 130.117188 L 193.222656 143.117188 L 176.222656 143.117188 Z M 176.222656 130.117188 "/>
<g style="fill:rgb(0%,0%,100%);fill-opacity:1;">
  <use xlink:href="#glyph0-2" x="176.222656" y="140.018555"/>
  <use xlink:href="#glyph0-3" x="184.206055" y="140.018555"/>
</g>
<path style=" stroke:none;fill-rule:nonzero;fill:rgb(100%,100%,100%);fill-opacity:1;" d="M 18.25 142.175781 L 35.25 142.175781 L 35.25 155.175781 L 18.25 155.175781 Z M 18.25 142.175781 "/>
<g style="fill:rgb(100%,0%,0%);fill-opacity:1;">
  <use xlink:href="#glyph0-3" x="18.25" y="152.077148"/>
  <use xlink:href="#glyph0-1" x="26.274414" y="152.077148"/>
</g>
</g>
</svg>

<svg xmlns="http://www.w3.org/2000/svg" xmlns:xlink="http://www.w3.org/1999/xlink" width="300pt" height="300pt" viewBox="0 0 300 300"><defs><symbol overflow="visible"><path d="M.547 1.938V-7.75h5.5v9.688zm.625-.61h4.266v-8.47H1.171zm0 0"/></symbol><symbol overflow="visible" id="a"><path d="M4.328-7.28c-.78 0-1.406.296-1.875.89-.46.585-.687 1.382-.687 2.39 0 1.012.226 1.813.687 2.406.47.586 1.094.875 1.875.875.79 0 1.414-.288 1.875-.874.457-.593.688-1.394.688-2.406 0-1.008-.23-1.805-.687-2.39-.46-.594-1.086-.89-1.875-.89zm0-.892c1.125 0 2.024.383 2.703 1.14C7.708-6.28 8.048-5.27 8.048-4c0 1.262-.34 2.273-1.016 3.03C6.353-.22 5.454.157 4.33.157S2.3-.22 1.625-.97c-.668-.75-1-1.757-1-3.03 0-1.27.332-2.28 1-3.03.676-.76 1.578-1.142 2.703-1.142zm0 0"/></symbol><symbol overflow="visible" id="b"><path d="M1.078-8.016h1.47l3.546 6.704v-6.704h1.062V0H5.688L2.124-6.703V0H1.078zm0 0"/></symbol><symbol overflow="visible" id="c"><path d="M1.078-8.016h1.094v3.282H6.11v-3.282h1.077V0H6.11v-3.813H2.17V0H1.078zm0 0"/></symbol></defs><g><path fill="#fff" d="M0 0h300v300H0z"/><path d="M65.383 83.277L64.047 96.82" stroke-width="1.2" stroke="#000" stroke-miterlimit="10" fill="none"/><path d="M64.047 96.82l-1.336 13.543M62.71 110.363l11.063 7.926" stroke-width="1.2" stroke="#f00" stroke-miterlimit="10" fill="none"/><path d="M73.773 118.29l11.06 7.93" stroke-width="1.2" stroke="#000" stroke-miterlimit="10" fill="none"/><path d="M58.71 103.863h9v13h-9zm0 0" fill="#fff"/><use xlink:href="#a" x="58.711" y="113.765" fill="#f00"/><path d="M86.152 129.133l12.395-5.613" stroke-width="1.2" stroke="#000" stroke-miterlimit="10" fill="none"/><path d="M98.547 123.52l12.394-5.614" stroke-width="1.2" stroke="#f00" stroke-miterlimit="10" fill="none"/><path d="M83.512 123.3l12.394-5.612" stroke-width="1.2" stroke="#000" stroke-miterlimit="10" fill="none"/><path d="M95.906 117.688l12.395-5.614" stroke-width="1.2" stroke="#f00" stroke-miterlimit="10" fill="none"/><path d="M82.16 153.3l7.45-26.613-9.56-.94zm0 0"/><path d="M105.62 108.488h9v13h-9zm0 0" fill="#fff"/><use xlink:href="#a" x="105.621" y="118.39" fill="#f00"/><path d="M82.16 153.3l-24.79 11.227M104.28 169.156L82.16 153.3M57.37 164.527l-2.67 27.086" stroke-width="1.2" stroke="#000" stroke-miterlimit="10" fill="none"/><path d="M57.37 164.527L38.048 144.77l-5.594 7.808zm0 0"/><path d="M54.7 191.613l22.116 15.856" stroke-width="1.2" stroke="#000" stroke-miterlimit="10" fill="none"/><path d="M101.61 196.238l-26.774 6.856 3.965 8.75zm0 0"/><path d="M101.61 196.238l2.67-27.082M123.727 212.094l-22.118-15.856" stroke-width="1.2" stroke="#000" stroke-miterlimit="10" fill="none"/><path d="M104.28 169.156m2.907-.746l-.433-.95m3.34.208l-.864-1.898m3.77 1.156l-1.293-2.852m4.2 2.106l-1.723-3.8m4.63 3.058l-2.154-4.75m5.06 4.003l-2.583-5.698m5.488 4.957l-3.012-6.65m5.918 5.903l-3.44-7.598m6.347 6.856l-3.875-8.55m4.49 8.39l-3.962-8.745M151.188 173.78m-2.094-2.143l-.61.847m-1.488-2.992l-1.215 1.696m-.882-3.84l-1.824 2.543m-.273-4.687l-2.43 3.39m.333-5.534l-3.04 4.237m.942-6.383L134.96 166m1.548-7.23l-4.254 5.93m2.156-8.075l-4.86 6.777m2.762-8.925l-5.468 7.628m5.023-8.082l-5.594 7.81" stroke="#000" stroke-miterlimit="10" fill="none"/><path d="M151.188 173.78l24.792-11.225" stroke-width="1.2" stroke="#000" stroke-miterlimit="10" fill="none"/><path d="M148.52 200.867l1.335-13.543" stroke-width="1.2" stroke="#00f" stroke-miterlimit="10" fill="none"/><path d="M149.855 187.324l1.333-13.543M175.98 162.555l22.118 15.855M181.922 158.934l17.695 12.687" stroke-width="1.2" stroke="#000" stroke-miterlimit="10" fill="none"/><path d="M184.223 136.617l-4.12 12.97" stroke-width="1.2" stroke="#00f" stroke-miterlimit="10" fill="none"/><path d="M180.102 149.586l-4.122 12.97M198.098 178.41l-2.668 27.082M198.098 178.41l21.918-16.137M195.43 205.492l-24.793 11.23M170.637 216.723l-11.06-7.93" stroke-width="1.2" stroke="#000" stroke-miterlimit="10" fill="none"/><path d="M159.578 208.793l-11.058-7.926M148.52 200.867l-12.4 5.613" stroke-width="1.2" stroke="#00f" stroke-miterlimit="10" fill="none"/><path d="M136.12 206.48l-12.393 5.614" stroke-width="1.2" stroke="#000" stroke-miterlimit="10" fill="none"/><path d="M144.52 194.367h8v13h-8zm0 0" fill="#fff"/><use xlink:href="#b" x="144.52" y="204.269" fill="#00f"/><path d="M220.016 162.273l26.652 5.49M223.97 156.55l21.327 4.387M211.438 136.445l8.578 25.828M246.668 167.762l18.082-20.344M264.75 147.418l-8.574-25.828M257.816 146.855l-6.863-20.664M256.176 121.59l-26.656-5.488M229.52 116.102l-18.083 20.343M232.496 122.39l-14.465 16.274M211.438 136.445l-13.606.086" stroke-width="1.2" stroke="#000" stroke-miterlimit="10" fill="none"/><path d="M197.832 136.53l-13.61.087" stroke-width="1.2" stroke="#00f" stroke-miterlimit="10" fill="none"/><path d="M176.223 130.117h17v13h-17zm0 0" fill="#fff"/><g fill="#00f"><use xlink:href="#b" x="176.223" y="140.019"/><use xlink:href="#c" x="184.206" y="140.019"/></g><path d="M18.25 142.176h17v13h-17zm0 0" fill="#fff"/><g fill="#f00"><use xlink:href="#c" x="18.25" y="152.077"/><use xlink:href="#a" x="26.274" y="152.077"/></g></g></svg>
